X: 1
C: Trad
R: Jig
T: Fiery Clockface, The
M: 6/8
L:1/8
K:D
Z: ABC transcription by Verge Roller
r: 32
|: c | "D" d2 d D2 E | "D" F2 G A2 B | "C" =c2 c E2 F | G2 A B2 c |
"D" d2 d D2 E | "D" F2 G A3 | "G" Bcd "A"edc | "D" d3 d2 :|
|: e | "D" f2 f def | "G" g2 f "Em" e2 d | "A" c2 B A2 B | "A" c2 d e2 g |
"D" f2 f def | "G" g2 f "Em" e2 d | "A" cBA B2 c | "D" d3 d2 :|
